X: 1
T:Montez-y
C:J. C. Blanc
R:bourree a trois temps
A:France
F:<a  rel="nofollow" href="http://simonwascher.info">http://simonwascher.info
Z:abc transcription Simon Wascher
M:3/8
L:1/16
F:<a  rel="nofollow" href="http://simonwascher.info/TradArchiv_bourree_3/montez-y.abc">http://simonwascher.info/TradArchiv_bourree_3/montez-y.abc
K:G
BAGBAG | AGFDFA | cAFDEF | GFGAB2 |
BAGBAG | AGFDFA | cAFDEF | G6 :|
g2f2e2 | d2c2B2 | cBAcBA | BAGDGB |
g2f2e2 | d2c2B2 | cBAcBA | G6 :|
